public/icons/passagers.svg

<svg id="Layer_1" height="512" viewBox="0 0 512 512" width="512" xmlns="http://www.w3.org/2000/svg" data-name="Layer 1"><path d="m432.738 194.626a71.539 71.539 0 0 0 -134.175-49.179 72.623 72.623 0 0 0 -85.126 0 71.54 71.54 0 0 0 -134.175 49.179 85.517 85.517 0 0 0 -79.262 85.174v33.719a51.76 51.76 0 0 0 51.7 51.7h57.182a51.769 51.769 0 0 0 51.248 44.959h191.738a51.769 51.769 0 0 0 51.248-44.959h57.184a51.76 51.76 0 0 0 51.7-51.7v-33.719a85.517 85.517 0 0 0 -79.262-85.174zm-68.309-60.808a39.538 39.538 0 1 1 -39.537 39.537 39.582 39.582 0 0 1 39.537-39.537zm-108.429 29.849a40.862 40.862 0 1 1 -40.861 40.861 40.907 40.907 0 0 1 40.861-40.861zm-108.43-29.849a39.538 39.538 0 1 1 -39.537 39.537 39.582 39.582 0 0 1 39.537-39.537zm-115.57 179.703v-33.721a53.482 53.482 0 0 1 53.421-53.42h14.179a71.353 71.353 0 0 0 88.915 5.582 72.51 72.51 0 0 0 3.517 7.423 85.5 85.5 0 0 0 -83.6 85.376v8.462h-56.732a19.724 19.724 0 0 1 -19.7-19.702zm339.57 44.959a19.724 19.724 0 0 1 -19.7 19.7h-191.738a19.724 19.724 0 0 1 -19.7-19.7v-33.719a53.482 53.482 0 0 1 53.421-53.422h33.118a72.665 72.665 0 0 0 58.068 0h.049 33.063a53.482 53.482 0 0 1 53.421 53.422zm108.43-44.959a19.724 19.724 0 0 1 -19.7 19.7h-56.73v-8.462a85.5 85.5 0 0 0 -83.605-85.376 72.621 72.621 0 0 0 3.517-7.423 71.352 71.352 0 0 0 88.918-5.58h14.183a53.482 53.482 0 0 1 53.417 53.42z"/></svg>

<svg id="Layer_1" data-name="Layer 1" xmlns="http://www.w3.org/2000/svg" viewBox="0 0 538 555"><rect width="538" height="555" style="fill:#f9f4b2"/><path d="M432.74,194.63a71.54,71.54,0,0,0-134.18-49.18,72.59,72.59,0,0,0-85.12,0A71.54,71.54,0,0,0,79.26,194.63,85.51,85.51,0,0,0,0,279.8v33.72a51.76,51.76,0,0,0,51.7,51.7h57.18a51.77,51.77,0,0,0,51.25,45H351.87a51.78,51.78,0,0,0,51.25-45H460.3a51.76,51.76,0,0,0,51.7-51.7V279.8a85.51,85.51,0,0,0-79.26-85.17Zm-68.31-60.81a39.54,39.54,0,1,1-39.54,39.54h0A39.58,39.58,0,0,1,364.43,133.82ZM256,163.67a40.86,40.86,0,1,1-40.86,40.86h0A40.89,40.89,0,0,1,256,163.67ZM147.57,133.82A39.54,39.54,0,1,1,108,173.36h0A39.58,39.58,0,0,1,147.57,133.82ZM32,313.52V279.8a53.48,53.48,0,0,1,53.42-53.42H99.6A71.35,71.35,0,0,0,188.52,232a71.82,71.82,0,0,0,3.51,7.42,85.51,85.51,0,0,0-83.6,85.38v8.46H51.7A19.71,19.71,0,0,1,32,313.52Zm339.57,45a19.73,19.73,0,0,1-19.7,19.7H160.13a19.73,19.73,0,0,1-19.7-19.7V324.76a53.48,53.48,0,0,1,53.42-53.42H227a72.67,72.67,0,0,0,58.07,0h33.11a53.48,53.48,0,0,1,53.42,53.42Zm108.43-45a19.72,19.72,0,0,1-19.7,19.7H403.57v-8.46A85.51,85.51,0,0,0,320,239.38a69.88,69.88,0,0,0,3.52-7.42,71.35,71.35,0,0,0,88.92-5.58h14.18A53.48,53.48,0,0,1,480,279.8Z" transform="translate(14 13)" style="fill:#fe0"/></svg>
